wp-content/plugins/wp-mail-smtp/assets/images/icons/badge-percent.svg

<svg width="16" height="16" viewBox="0 0 16 16" fill="none" xmlns="http://www.w3.org/2000/svg">
<path d="M8 0C9.125 0 10.125 0.65625 10.625 1.625C11.6562 1.28125 12.8125 1.53125 13.6562 2.34375C14.4688 3.15625 14.6875 4.34375 14.375 5.375C15.3438 5.875 16 6.875 16 8C16 9.15625 15.3438 10.1562 14.375 10.6562C14.7188 11.6875 14.4688 12.8438 13.6562 13.6562C12.8125 14.4688 11.6562 14.7188 10.625 14.4062C10.125 15.375 9.125 16 8 16C6.84375 16 5.84375 15.375 5.34375 14.4062C4.3125 14.7188 3.15625 14.4688 2.3125 13.6562C1.5 12.8438 1.28125 11.6875 1.59375 10.6562C0.625 10.1562 0 9.15625 0 8C0 6.875 0.625 5.875 1.59375 5.375C1.25 4.34375 1.5 3.15625 2.3125 2.34375C3.15625 1.53125 4.3125 1.28125 5.34375 1.625C5.84375 0.65625 6.84375 0 8 0ZM6 7C6.53125 7 7 6.5625 7 6C7 5.46875 6.53125 5 6 5C5.4375 5 5 5.46875 5 6C5 6.5625 5.4375 7 6 7ZM10 9C9.4375 9 9 9.46875 9 10C9 10.5625 9.4375 11 10 11C10.5312 11 11 10.5625 11 10C11 9.46875 10.5312 9 10 9ZM10.5 6.53125C10.8125 6.25 10.8125 5.78125 10.5 5.46875C10.2188 5.1875 9.75 5.1875 9.46875 5.46875L5.46875 9.46875C5.15625 9.78125 5.15625 10.25 5.46875 10.5312C5.75 10.8438 6.21875 10.8438 6.5 10.5312L10.5 6.53125Z" fill="#008A20"/>
</svg>

<svg width="16" height="16" fill="none" xmlns="http://www.w3.org/2000/svg"><path d="M8 0c1.125 0 2.125.656 2.625 1.625 1.031-.344 2.188-.094 3.031.719.813.812 1.031 2 .719 3.031C15.344 5.875 16 6.875 16 8a2.984 2.984 0 0 1-1.625 2.656 2.918 2.918 0 0 1-.719 3 3.07 3.07 0 0 1-3.031.75C10.125 15.375 9.125 16 8 16c-1.156 0-2.156-.625-2.656-1.594a3.07 3.07 0 0 1-3.032-.75c-.812-.812-1.03-1.969-.718-3C.625 10.156 0 9.156 0 8c0-1.125.625-2.125 1.594-2.625a2.972 2.972 0 0 1 .718-3.031c.844-.813 2-1.063 3.032-.719C5.844.656 6.844 0 8 0ZM6 7c.531 0 1-.438 1-1 0-.531-.469-1-1-1-.563 0-1 .469-1 1 0 .563.438 1 1 1Zm4 2c-.563 0-1 .469-1 1 0 .563.438 1 1 1 .531 0 1-.438 1-1 0-.531-.469-1-1-1Zm.5-2.469c.313-.281.313-.75 0-1.062a.736.736 0 0 0-1.031 0l-4 4c-.313.312-.313.781 0 1.062a.684.684 0 0 0 1.031 0l4-4Z" fill="#008A20"/></svg>
